@027&HE:@027&FWO9000-2          :@018% 
:9000(STP PER LAVORAZ.IN SYNCRO WORK1-WORK2) 
N5G92S3000 
N10IF[#531EQ2]GOTO465
IF[#20EQ0]THEN#3000=1(MANCA CODICE T)
IF[#21EQ0]THEN#3000=1(MANCA CODICE U)
IF[#22EQ0]THEN#3000=1(MANCA CODICE V)
IF[#26EQ0]THEN#3000=1(MANCA CODICE Z)
IF[#1EQ0]THEN#3000=1(MANCA CODICE A) 
IF[#2EQ0]THEN#3000=1(MANCA CODICE B) 
IF[#3EQ0]THEN#3000=1(MANCA CODICE C) 
IF[#7EQ0]THEN#3000=1(MANCA CODICE D) 
IF[#8EQ0]THEN#3000=1(MANCA CODICE E) 
IF[#9EQ0]THEN#3000=1(MANCA CODICE F) 
IF[#17EQ0]THEN#3000=1(MANCA CODICE Q)
IF[#7GT0]THEN#3000=1(SEGNO D ERRATO )
IF[#9GT0]THEN#3000=1( SEGNO F ERRATO ) 
N15G28U0 
N20#31=#20 
N25#31=[#31/100] 
N30#32=ROUND[#31]
N35#31=[#31-#32] 
N40#31=[#31*100] 
N45#31=ROUND[#31]
N50IF[[#[2700+#31]+#[2000+#31]]LT150]THEN#3000=1(PRESET. X INSUFF.)
N55IF[[#[2700+#31]+#[2000+#31]]GT177]THEN#3000=1(PRESET. X ECCESS.)
N60T#20(UTENSILE ROMBOIDALE PER SGROSS.PROFILO)
N65G0Z#3 
N70M12 
N75M170
N80M171
N85M11 
N90M172
N95M173
N100M10
N105G4X1 
N110M174 
N115M175 
N120G96S130M3
N125M29
N130M186 
N135M187 
N140G52Z#26(SPOST.COORDINATA PEZZO)
N145G0X[#2+0.6]Z[#3+1]F0.2 
N150M7 
N155IF[#24EQ2]GOTO190
N160G73U#17R1
N165G73P170Q250U#11W#13S130F0.2
N170G1G42X[#1+0.6]F0.6 
N175X[#1+#25]
N180Z#7X#1F0.2 
N185GOTO235
N190(ESECUZIONE SECONDO SCALINO) 
N195G73U#17R1
N200G73P205Q250U#11W#13S130F0.2
N205G1G42X[#19+0.6]F0.6
N210X[#19+#25] 
N215Z#23X#19F0.2 
N220X[#1-[#18*2]]
N225X#1Z[#23-#18]
N230Z#7
N235X[#8-[#18*2]]
N240X#8Z[#7-#18] 
N245Z[#9-3]
N250X[#2+2]
N255G0G40Z[#3+1] 
N260G28U0M9
N265#31=#21
N270#31=[#31/100]
N275#32=ROUND[#31] 
N280#31=[#31-#32]
N285#31=[#31*100]
N290#31=ROUND[#31] 
N295IF[[#[2700+#31]+#[2000+#31]]LT150]THEN#3000=1(PRESET. X INSUFF.) 
N300IF[[#[2700+#31]+#[2000+#31]]GT177]THEN#3000=1(PRESET. X ECCESS.) 
N305T#21(UTENSILE ROMBOIDALE PER FINITURA.PROFILO) 
N310IF[#24EQ2]GOTO335
N315G0G96X#2Z[#3+1]S170F0.035
N320M7 
N325G72P170Q255
N330GOTO350
N335G0G96X#2Z[#3+1]S170F0.035
N340M7 
N345G72P205Q255
N350G28U0
N355#31=#22
N360#31=[#31/100]
N365#32=ROUND[#31] 
N370#31=[#31-#32]
N375#31=[#31*100]
N380#31=ROUND[#31] 
N385IF[[#[2700+#31]+#[2000+#31]]LT156]THEN#3000=1(PRESET. X INSUFF.) 
N390IF[[#[2700+#31]+#[2000+#31]]GT177]THEN#3000=1(PRESET. X ECCESS.) 
N395T#22(UTENSILE TRONCATORE PER TAGLIO DI SEPARAZIONE)
N400G0G96Z[#9-0.4-2.6]S60F0.05 
N405M188 
N410M189 
N415X[#8+3]
N420G1X-0.5M7
N425G0X[#8+3]
N430M9 
N435M31
N440M190 
N445M191 
N450G28U0W0M5
N455G52Z0
N460GOTO705
N465(SEQUENZE PER WORK2) 
IF[#26EQ0]THEN#3000=1(MANCA CODICE Z)
IF[#3EQ0]THEN#3000=1(MANCA CODICE C) 
IF[#7EQ0]THEN#3000=1(MANCA CODICE D) 
IF[#9EQ0]THEN#3000=1(MANCA CODICE F) 
IF[#7GT0]THEN#3000=1( SEGNO D ERRATO ) 
IF[#9GT0]THEN#3000=1( SEGNO F ERRATO ) 
N470M170 
N475M11
N480T30
N485G30
N490G0Z1 
N495M48
N500G28C0
N505M49
N510M12
N515G1G94Z[#3+25]F500
N520M10
N525G4X1 
N530M171 
N535M172 
N540G1Z[#26-[ABS[#3]-24.88]]F500 
N545G52Z#26(SPOST COORD.PEZZO) 
N550M173 
N555M174 
N556G0G91Z0.1
N557G90
N560M11
N565M175 
N570M186 
N575M10
N580M187 
N585M188 
N590M11
N595IF[#24EQ2]GOTO635
N600IF[[ABS[#7]-1]GT100]GOTO620
N605G1Z[#7+3]F1000 
N610IF[[#5002-#9]GT39]GOTO613
N612GOTO615
N613M00(ATTENZIONE SPORG.PEZZO SUP.ALLA CAPACITA LEVAPEZZO)
N615GOTO665
N620G1Z-100F1000 
N625IF[[#5002-#9]GT39]GOTO628
N626GOTO630
N628M00(ATTENZIONE SPORG.PEZZO SUP.ALLA CAPACITA LEVAPEZZO)
N630GOTO665
N635IF[[ABS[#23]-1]GT100]GOTO655 
N640G1Z[#23+1]F1000
N645IF[[#5002-#9]GT39]GOTO648
N646GOTO650
N648M00(ATTENZIONE SPORG.PEZZO SUP.ALLA CAPACITA LEVAPEZZO)
N650GOTO665
N655G1Z-100F1000 
N660IF[[#5002-#9]GT39]GOTO664
N662GOTO665
N664M00(ATTENZIONE SPORG.PEZZO SUP.ALLA CAPACITA LEVAPEZZO)
N665M10
N670M189 
N675M190 
N680G0Z0 
N685G52Z0
N690G28U0W0
N695M191 
N700M192 
N705(FINE LAVORO WORK1)
N710M99
%
